X: 11841
T: Elsie Marley
R: jig
M: 6/8
K: Dmajor
FEF D2 D|D2 d dAG|FEF D2 D|E2 =c cGE|
FEF DDD|ded dAG|GeG FdF|E2 =c cGHE:|
F2 G A2 A|ABc dAG|F2 G A2 A|EFE =cGE|
F2 G A2 A|ABc dAF|GeG FdG|E2 =c cGE:|

